dist/svg/object-based/glasses_16.svg

<svg xmlns="http://www.w3.org/2000/svg" viewBox="0 0 16 16"><path d="M12.5 4.5c-1.274 0-2.378.688-2.99 1.706C9.076 5.92 8.558 5.75 8 5.75s-1.076.17-1.51.456C5.878 5.188 4.774 4.5 3.5 4.5 1.567 4.5 0 6.067 0 8s1.567 3.5 3.5 3.5S7 9.933 7 8c0-.063-.015-.12-.018-.184.224-.333.586-.566 1.018-.566.43 0 .794.233 1.018.566C9.015 7.88 9 7.936 9 8c0 1.933 1.567 3.5 3.5 3.5S16 9.933 16 8s-1.567-3.5-3.5-3.5zM4.96 9.36c-.053.054-.11.104-.167.153-.035.03-.07.06-.106.087-.05.04-.104.073-.158.106-.054.032-.107.06-.163.088-.05.024-.097.047-.148.067-.072.03-.146.05-.22.07-.043.01-.084.024-.127.032-.12.023-.245.038-.373.038-1.103 0-2-.897-2-2s.897-2 2-2c.128 0 .253.015.375.038.043.008.083.022.125.033.076.02.15.042.223.07.05.02.097.043.145.066.058.028.114.058.168.09.053.034.103.068.152.104.04.03.08.064.12.098.052.047.104.093.152.145.023.025.043.052.064.078.194.232.338.504.412.806.038.152.064.31.064.474 0 .51-.197.968-.51 1.322l-.03.037zm7.54.64c-.128 0-.252-.015-.373-.038-.043-.008-.084-.022-.126-.033-.074-.02-.148-.042-.22-.07-.05-.02-.098-.042-.147-.066-.055-.027-.11-.056-.16-.088-.056-.033-.108-.068-.16-.105-.036-.027-.07-.057-.105-.087-.058-.05-.114-.1-.166-.154l-.03-.04C10.696 8.97 10.5 8.51 10.5 8c0-.164.026-.322.063-.475.074-.302.218-.573.412-.804.022-.025.042-.053.065-.078.048-.05.1-.098.153-.144.04-.034.078-.068.12-.1.05-.035.1-.07.15-.1.055-.035.11-.064.17-.092.047-.023.094-.047.144-.066.072-.028.147-.05.223-.07.042-.01.082-.024.125-.032.122-.023.247-.038.375-.038 1.103 0 2 .897 2 2s-.897 2-2 2z"/></svg>

<?xml version="1.0" encoding="iso-8859-1"?>
<!-- Generator: Adobe Illustrator 20.0.0, SVG Export Plug-In . SVG Version: 6.00 Build 0)  -->
<svg version="1.1" id="Layer_1" xmlns="http://www.w3.org/2000/svg" xmlns:xlink="http://www.w3.org/1999/xlink" x="0px" y="0px"
	 viewBox="0 0 16 16" style="enable-background:new 0 0 16 16;" xml:space="preserve">
<path d="M12.5,4.5c-1.274,0-2.378,0.688-2.99,1.706C9.076,5.919,8.558,5.75,8,5.75S6.924,5.919,6.49,6.206
	C5.878,5.188,4.774,4.5,3.5,4.5C1.567,4.5,0,6.067,0,8s1.567,3.5,3.5,3.5S7,9.933,7,8c0-0.063-0.015-0.121-0.018-0.184
	C7.206,7.483,7.568,7.25,8,7.25c0.431,0,0.794,0.233,1.018,0.566C9.015,7.879,9,7.937,9,8c0,1.933,1.567,3.5,3.5,3.5S16,9.933,16,8
	S14.433,4.5,12.5,4.5z M4.959,9.359C4.907,9.414,4.85,9.464,4.793,9.513c-0.035,0.03-0.069,0.06-0.106,0.087
	C4.636,9.639,4.583,9.673,4.529,9.706C4.476,9.738,4.423,9.767,4.367,9.794C4.318,9.818,4.27,9.841,4.219,9.861
	C4.148,9.889,4.074,9.91,3.999,9.929C3.957,9.94,3.916,9.954,3.873,9.962C3.752,9.985,3.628,10,3.5,10c-1.103,0-2-0.897-2-2
	s0.897-2,2-2c0.128,0,0.253,0.015,0.375,0.038C3.918,6.046,3.958,6.06,4,6.071c0.076,0.02,0.151,0.041,0.223,0.069
	c0.05,0.02,0.097,0.043,0.145,0.066c0.058,0.028,0.114,0.058,0.168,0.091C4.589,6.33,4.639,6.364,4.688,6.4
	c0.041,0.031,0.08,0.064,0.119,0.098C4.86,6.545,4.912,6.591,4.96,6.643c0.023,0.025,0.043,0.052,0.064,0.078
	c0.194,0.231,0.338,0.503,0.412,0.805v0l0,0C5.474,7.678,5.5,7.836,5.5,8c0,0.509-0.197,0.968-0.511,1.322
	C4.979,9.334,4.97,9.347,4.959,9.359z M12.5,10c-0.128,0-0.252-0.015-0.373-0.038c-0.043-0.008-0.084-0.022-0.126-0.033
	c-0.075-0.02-0.149-0.041-0.22-0.068c-0.051-0.02-0.099-0.043-0.148-0.067c-0.055-0.027-0.109-0.056-0.161-0.088
	c-0.055-0.033-0.107-0.068-0.158-0.105c-0.037-0.028-0.071-0.058-0.106-0.088c-0.058-0.049-0.114-0.099-0.166-0.154
	c-0.011-0.012-0.02-0.026-0.031-0.038C10.697,8.968,10.5,8.508,10.5,8c0-0.164,0.026-0.322,0.063-0.475v0
	c0.074-0.302,0.218-0.573,0.412-0.804c0.022-0.026,0.042-0.054,0.065-0.079c0.048-0.051,0.1-0.098,0.153-0.144
	c0.039-0.034,0.078-0.068,0.12-0.099c0.049-0.036,0.099-0.07,0.151-0.102c0.054-0.034,0.11-0.063,0.168-0.091
	c0.048-0.023,0.095-0.047,0.145-0.066C11.849,6.112,11.924,6.091,12,6.071c0.042-0.011,0.082-0.025,0.125-0.033
	C12.247,6.015,12.372,6,12.5,6c1.103,0,2,0.897,2,2S13.603,10,12.5,10z"/>
</svg>
